X: 90
I: linebreak $
T: Saint Martins
T: for two couples facing
P: AA BB x 3
C: 
K: G major
M: 2/2
L: 1/4
"Am"E |: "Am"A/B/c "G"B/c/d | "C"c2 c"G"d | "C"e/f/g "D"f3/e/ | "E"e3"Em"e/f/ | "G"gf/e/ dd/e/ | "F"=fe/d/ cc/d/ | 
"Am"ed/c/ "E"B3/A/ |  [1 "A"A3"Am"E :|]  [2 "A"A4 :: "Em"Be B"Am"c | "Em"B3/A/ G/F/E | "C"c/d/e/=f/ "G"d3/e/ | 
"C"c3e/f/ | "G"gd/e/ "F"=fc/d/ | "Em"eB/c/ "Dm"dc/d/ | "Am"ed/c/ "E"B3/A/ |  [1 "A"A4 :|]  [2 "A"A3 |] 

